X: 275
T: Glory of the West
P: Longways for as many as will
%R: reel
B: "The Dancing-Master: Containing Directions and Tunes for Dancing" printed by W. Pearson for John Walsh, London ca. 1709
S: 7: DMDfD http://digital.nls.uk/special-collections-of-printed-music/pageturner.cfm?id=89751228 p.43 "E 4"
Z: 2013 John Chambers <jc:trillian.mit.edu>
N: The dance description is in three sections and two columns; ## used to separate columns.
M: C|
L: 1/8
K: Gm
% - - - - - - - - - - - - - - - - - - - - - - - - -
[|\
BABA G2G2 | ABAG F2F2 | B2AB c2Bc | d2AB G2G2 |][| dcdc B2fe | dedc B2B2 | f2fg c2c2 |
f2fg c2c2 | g2ga f2fg | d2cd B2B2 | f2fg d2cB | cB AG F2F2 | B2AB c2Bc | d2AB G2G2 |]
% - - - - - - - - - - - - - - - - - - - - - - - - -
%%begintext align
%% Meet a D. fall back, open and close .| Fall back a D. meet, open and close :|
%% ##
%%	Back men, we. turn S. back we. men turn S. men cross over, we. cross over
%%	hands round, and go half to your places.
%%endtext
%%sep 1 1 300
%%begintext align
%% Sides with the co. we set to them .| Sides with your own wo. set to her .:|
%% ##
%%	Men turn off to the left-hand, and fall behind your we. back to back, turn back
%%	again in your places, we. as much, change Places round till you come to your
%%	own places, then take right-hands a-cross, and go round to your places :|
%%endtext
%%sep 1 1 300
%%begintext align
%% Arms as you sided :|
%% ##
%%	Men meet, we. meet, and give right-hands across, men go under their arms
%%	to your own places, men hands a-cross, and we. go under as the men did, men
%%	right-hands to the co. we. then left-hands to their own and fall into the
%%	contrary places, hands in a ring, and go half round to your places, falling all
%%	a-breast to the presence :|
%%endtext
%%sep 1 8 500

%%sep 1 1 500
%%sep 1 1 500
